db/seeds/files/goal_filters/joyful.svg

<svg viewBox="0 0 91 91" xmlns="http://www.w3.org/2000/svg"><g fill="#df8e79"><path d="m63.88 41.06a6.18 6.18 0 0 0 -5.4-3.17 6.38 6.38 0 0 0 -5.41 3.11 1.1 1.1 0 0 0 1.93 1.16 4.18 4.18 0 0 1 3.53-2.08 4 4 0 0 1 3.48 2 1.1 1.1 0 1 0 1.92-1.07z"/><path d="m45.17 41.06a6.18 6.18 0 0 0 -5.4-3.17 6.38 6.38 0 0 0 -5.41 3.11 1.1 1.1 0 1 0 1.88 1.13 4.18 4.18 0 0 1 3.53-2.08 4 4 0 0 1 3.48 2 1.1 1.1 0 1 0 1.92-1.07z"/><path d="m71.41 46.53c-1.79-2-8.45-3.55-9.76-3.84a1.1 1.1 0 0 0 -1.33 1.22 49.63 49.63 0 0 0 1.27 6.33h-25.06a52.87 52.87 0 0 0 1-5.34 1.1 1.1 0 0 0 -1.33-1.22c-1.32.3-8 1.89-9.76 3.84a5.51 5.51 0 0 0 4.06 9.23h.25a5.48 5.48 0 0 0 3.83-1.75v-.05a15.19 15.19 0 0 0 29.55-.14 5.53 5.53 0 0 0 5 .67 26.05 26.05 0 0 1 -7.63 10.22 25.58 25.58 0 0 1 -16.16 5.67 25.87 25.87 0 1 1 25-32.42 1.1 1.1 0 1 0 2.12-.55 28.05 28.05 0 1 0 .18 13.6 1.1 1.1 0 0 0 0-.31 5.51 5.51 0 0 0 -1.23-5.16zm-38.41 6.95a3.32 3.32 0 0 1 -4.94-4.48c.82-.89 4.21-2 7.05-2.8-.49 2.9-1.33 6.39-2.11 7.28zm16.38 10.84a13 13 0 0 1 -12.94-11.89h25.89a13 13 0 0 1 -12.95 11.89zm20.21-11.62a3.32 3.32 0 0 1 -4.69-.21 4.75 4.75 0 0 1 -.78-1.55 37.81 37.81 0 0 1 -1.37-5.72c2.84.75 6.24 1.9 7.05 2.8a3.32 3.32 0 0 1 -.21 4.68z"/><circle cx="72.17" cy="42.22" r="1.56"/></g></svg>

<svg id="Слой_1" data-name="Слой 1" xmlns="http://www.w3.org/2000/svg" viewBox="0 0 91 91"><defs><style>.cls-1{fill:#df8e79;}</style></defs><title>6</title><g id="item-Page"><g id="Mobile-Icons"><g id="Group-Copy-11"><g id="_6" data-name="6"><path id="Shape" class="cls-1" d="M63.88,41.06a6.18,6.18,0,0,0-5.4-3.17A6.38,6.38,0,0,0,53.07,41,1.1,1.1,0,0,0,55,42.16a4.18,4.18,0,0,1,3.53-2.08,4,4,0,0,1,3.48,2,1.1,1.1,0,1,0,1.92-1.07Z"/><path id="Shape-2" data-name="Shape" class="cls-1" d="M45.17,41.06a6.18,6.18,0,0,0-5.4-3.17A6.38,6.38,0,0,0,34.36,41a1.1,1.1,0,1,0,1.88,1.13,4.18,4.18,0,0,1,3.53-2.08,4,4,0,0,1,3.48,2,1.1,1.1,0,1,0,1.92-1.07Z"/><path id="Shape-3" data-name="Shape" class="cls-1" d="M71.41,46.53c-1.79-2-8.45-3.55-9.76-3.84a1.1,1.1,0,0,0-1.33,1.22,49.63,49.63,0,0,0,1.27,6.33H36.53a52.87,52.87,0,0,0,1-5.34,1.1,1.1,0,0,0-1.33-1.22c-1.32.3-8,1.89-9.76,3.84a5.51,5.51,0,0,0,4.06,9.23h.25A5.48,5.48,0,0,0,34.58,55l0-.05a15.19,15.19,0,0,0,29.55-.14,5.53,5.53,0,0,0,5,.67A26.05,26.05,0,0,1,61.5,65.7a25.58,25.58,0,0,1-16.16,5.67,25.87,25.87,0,1,1,25-32.42,1.1,1.1,0,1,0,2.12-.55A28.05,28.05,0,1,0,72.64,52a1.1,1.1,0,0,0,0-.31A5.51,5.51,0,0,0,71.41,46.53ZM33,53.48A3.32,3.32,0,0,1,28.06,49c.82-.89,4.21-2,7.05-2.8C34.62,49.1,33.78,52.59,33,53.48ZM49.38,64.32A13,13,0,0,1,36.44,52.43H62.33A13,13,0,0,1,49.38,64.32ZM69.59,52.7a3.32,3.32,0,0,1-4.69-.21,4.75,4.75,0,0,1-.78-1.55,37.81,37.81,0,0,1-1.37-5.72c2.84.75,6.24,1.9,7.05,2.8A3.32,3.32,0,0,1,69.59,52.7Z"/><circle id="Oval" class="cls-1" cx="72.17" cy="42.22" r="1.56"/></g></g></g></g></svg>
